X: 15
M: C|
L: 1/8
K: D
dA |\
fa Aa fg ce | c2 A4 Bc |\
dB GB GB gB |
ae ce ce af |\
gfed ce ae | f2 d4 |] fg |\
af df dA FA | dA GA FD GD |
gfed ce ae | f2 d4 |]


